X:1
T:Title
%%score { ( 1 3 ) | ( 2 4 ) }
L:1/8
Q:1/4=100
M:3/4
K:G
V:1 treble nm="Grand Piano"
V:3 treble 
V:2 treble 
V:4 treble 
V:1
 B2 A2 B2 | d4 z2 | B6- | B2 z2 A2 | G4 [B,DB]2 | E2 z2 z2 | [A,DF]6- | [A,DF]4 z2 | %8
w: George~Lomas * *||||||||
 [F,D]2 [G,DE]2[K:treble] [A,DF]2 | [G,DG]4 [=Fd]2 | [Ec]4 [B,DB]2 | [CA]4 E2 | F6 | G4 A2 | %14
w: ||||||
 [G,B,G]6- | [G,B,G]4 z2 |] %16
w: ||
V:2
 [G,DG]2 [G,CG]2 [G,DG]2 | =F2 z2 z2 | [G,DG]6- | [G,DG]2 z2[K:bass] [F,D]2 | [E,B,E]4 G,,2 | %5
 z2 F2 A,,2 | D,6- | D,4 z2 | D,2 D,2 C,2 | B,,4 [B,,^G,]2 | [A,,A,]4 ^G,,2 | [A,,E,]4 [C,A,]2 | %12
 [D,A,C]6 | [D,C]4- [D,F,C]2 | G,,6- | G,,4 z2 |] %16
V:3
 x6 | z2 E2 c2 | x6 | x6 | x6 | [G,^C]4 [A,CG]2 | x6 | x6 | x4[K:treble] x2 | x6 | x6 | x6 | x6 | %13
 x6 | x6 | x6 |] %16
V:4
 x6 | [G,G]4 [G,^DG]2 | x6 | x4[K:bass] x2 | x6 | A,,4 z2 | x6 | x6 | x6 | x6 | x6 | x6 | x6 | %13
 G,4 z2 | x6 | x6 |] %16

